X:16
T:Bean a Ti Ar Lar (reel) 
B:CRE2.199 (as title)
F:file ID: cre.2/016bean_a_ti
L:1/8
M:C
R:reel % A-B-A
Q:180
K:D
dB|AGFE D2FD|GEFE Ddcd|AGFE D2FD|(3EDE cA BGEd|
AGFE D2FD|GEFE Ddcd|AGFE D2FD|(3EDE cA BGE||
d|cdec A2AB|cdec AFEd|cdec A2AF|E2cA BGEd|
cdec A2AB|cdec AFEd|cdeg faec|(3ABA Bc BdcB||

%%%

